(Exported by FreeCAD)
(Post Processor: PathScripts.post.linuxcnc_post)
(Output Time:2018-12-18 21:36:11.640105)
(begin preamble)
G17 G54 G40 G49 G80 G90
G21
(begin operation: Profile_Faces)
(machine: not set, mm/min)
(Profile_Faces)
(Compensated Tool Path. Diameter: 6.0)
G0 Z5.000
M03
G0 X37.121 Y37.121
G0 Z3.000
G1 X37.121 Y37.121 Z-3.500 F6.000
G2 X38.000 Y35.000 Z-3.500 I-2.121 J-2.121 F360.000
G1 X38.000 Y0.000 Z-3.500 F360.000
G2 X35.000 Y-3.000 Z-3.500 I-3.000 J0.000 F360.000
G1 X0.000 Y-3.000 Z-3.500 F360.000
G2 X-3.000 Y0.000 Z-3.500 I0.000 J3.000 F360.000
G1 X-3.000 Y35.000 Z-3.500 F360.000
G2 X0.000 Y38.000 Z-3.500 I3.000 J-0.000 F360.000
G1 X35.000 Y38.000 Z-3.500 F360.000
G2 X37.121 Y37.121 Z-3.500 I-0.000 J-3.000 F360.000
G1 X37.121 Y37.121 Z-4.000 F6.000
G2 X38.000 Y35.000 Z-4.000 I-2.121 J-2.121 F360.000
G1 X38.000 Y0.000 Z-4.000 F360.000
G2 X35.000 Y-3.000 Z-4.000 I-3.000 J0.000 F360.000
G1 X0.000 Y-3.000 Z-4.000 F360.000
G2 X-3.000 Y0.000 Z-4.000 I0.000 J3.000 F360.000
G1 X-3.000 Y35.000 Z-4.000 F360.000
G2 X0.000 Y38.000 Z-4.000 I3.000 J-0.000 F360.000
G1 X35.000 Y38.000 Z-4.000 F360.000
G2 X37.121 Y37.121 Z-4.000 I-0.000 J-3.000 F360.000
G1 X37.121 Y37.121 Z-4.500 F6.000
G2 X38.000 Y35.000 Z-4.500 I-2.121 J-2.121 F360.000
G1 X38.000 Y0.000 Z-4.500 F360.000
G2 X35.000 Y-3.000 Z-4.500 I-3.000 J0.000 F360.000
G1 X0.000 Y-3.000 Z-4.500 F360.000
G2 X-3.000 Y0.000 Z-4.500 I0.000 J3.000 F360.000
G1 X-3.000 Y35.000 Z-4.500 F360.000
G2 X0.000 Y38.000 Z-4.500 I3.000 J-0.000 F360.000
G1 X35.000 Y38.000 Z-4.500 F360.000
G2 X37.121 Y37.121 Z-4.500 I-0.000 J-3.000 F360.000
G0 Z5.000
(finish operation: Profile_Faces)
(begin postamble)
M05
G17 G54 G90 G80 G40
M2
