(Exported by FreeCAD)
(Post Processor: PathScripts.post.linuxcnc_post)
(Output Time:2018-12-18 21:36:11.640105)
(begin preamble)
G17 G54 G40 G49 G80 G90
G21
(begin operation: Profile_Faces)
(machine: not set, mm/min)
(Profile_Faces)
(Compensated Tool Path. Diameter: 6.0)
G0 Z5.000
M03
G0 X18.202 Y20.702
G0 Z3.000
G1 X18.202 Y20.702 Z-5.500 F6.000
G3 X17.167 Y20.936 Z-5.500 I-0.702 J-0.702 F360.000
G3 X16.564 Y19.667 Z-5.500 I0.333 J-0.936 F360.000
G3 X17.833 Y19.064 Z-5.500 I0.936 J0.333 F360.000
G3 X18.202 Y20.702 Z-5.500 I-0.333 J0.936 F360.000
G1 X18.202 Y20.702 Z-6.000 F6.000
G3 X17.167 Y20.936 Z-6.000 I-0.702 J-0.702 F360.000
G3 X16.564 Y19.667 Z-6.000 I0.333 J-0.936 F360.000
G3 X17.833 Y19.064 Z-6.000 I0.936 J0.333 F360.000
G3 X18.202 Y20.702 Z-6.000 I-0.333 J0.936 F360.000
G1 X18.202 Y20.702 Z-6.500 F6.000
G3 X17.167 Y20.936 Z-6.500 I-0.702 J-0.702 F360.000
G3 X16.564 Y19.667 Z-6.500 I0.333 J-0.936 F360.000
G3 X17.833 Y19.064 Z-6.500 I0.936 J0.333 F360.000
G3 X18.202 Y20.702 Z-6.500 I-0.333 J0.936 F360.000
G1 X18.202 Y20.702 Z-7.000 F6.000
G3 X17.167 Y20.936 Z-7.000 I-0.702 J-0.702 F360.000
G3 X16.564 Y19.667 Z-7.000 I0.333 J-0.936 F360.000
G3 X17.833 Y19.064 Z-7.000 I0.936 J0.333 F360.000
G3 X18.202 Y20.702 Z-7.000 I-0.333 J0.936 F360.000
G1 X18.202 Y20.702 Z-7.500 F6.000
G3 X17.167 Y20.936 Z-7.500 I-0.702 J-0.702 F360.000
G3 X16.564 Y19.667 Z-7.500 I0.333 J-0.936 F360.000
G3 X17.833 Y19.064 Z-7.500 I0.936 J0.333 F360.000
G3 X18.202 Y20.702 Z-7.500 I-0.333 J0.936 F360.000
G1 X18.202 Y20.702 Z-8.000 F6.000
G3 X17.167 Y20.936 Z-8.000 I-0.702 J-0.702 F360.000
G3 X16.564 Y19.667 Z-8.000 I0.333 J-0.936 F360.000
G3 X17.833 Y19.064 Z-8.000 I0.936 J0.333 F360.000
G3 X18.202 Y20.702 Z-8.000 I-0.333 J0.936 F360.000
G1 X18.202 Y20.702 Z-8.500 F6.000
G3 X17.167 Y20.936 Z-8.500 I-0.702 J-0.702 F360.000
G3 X16.564 Y19.667 Z-8.500 I0.333 J-0.936 F360.000
G3 X17.833 Y19.064 Z-8.500 I0.936 J0.333 F360.000
G3 X18.202 Y20.702 Z-8.500 I-0.333 J0.936 F360.000
G1 X18.202 Y20.702 Z-9.000 F6.000
G3 X17.167 Y20.936 Z-9.000 I-0.702 J-0.702 F360.000
G3 X16.564 Y19.667 Z-9.000 I0.333 J-0.936 F360.000
G3 X17.833 Y19.064 Z-9.000 I0.936 J0.333 F360.000
G3 X18.202 Y20.702 Z-9.000 I-0.333 J0.936 F360.000
G1 X18.202 Y20.702 Z-9.500 F6.000
G3 X17.167 Y20.936 Z-9.500 I-0.702 J-0.702 F360.000
G3 X16.564 Y19.667 Z-9.500 I0.333 J-0.936 F360.000
G3 X17.833 Y19.064 Z-9.500 I0.936 J0.333 F360.000
G3 X18.202 Y20.702 Z-9.500 I-0.333 J0.936 F360.000
G1 X18.202 Y20.702 Z-10.000 F6.000
G3 X17.167 Y20.936 Z-10.000 I-0.702 J-0.702 F360.000
G3 X16.564 Y19.667 Z-10.000 I0.333 J-0.936 F360.000
G3 X17.833 Y19.064 Z-10.000 I0.936 J0.333 F360.000
G3 X18.202 Y20.702 Z-10.000 I-0.333 J0.936 F360.000
G0 Z5.000
(finish operation: Profile_Faces)
(begin postamble)
M05
G17 G54 G90 G80 G40
M2
