(Exported by FreeCAD)
(Post Processor: PathScripts.post.linuxcnc_post)
(Output Time:2018-12-18 21:36:11.640105)
(begin preamble)
G17 G54 G40 G49 G80 G90
G21
(begin operation: Profile_Faces)
(machine: not set, mm/min)
(Profile_Faces)
(Compensated Tool Path. Diameter: 6.0)
G0 Z5.000
M03
G0 X18.202 Y20.702
G0 Z3.000
G1 X18.202 Y20.702 Z-10.500 F6.000
G3 X16.544 Y19.732 Z-10.500 I-0.702 J-0.702 F360.000
G3 X17.768 Y19.044 Z-10.500 I0.956 J0.268 F360.000
G3 X18.456 Y20.268 Z-10.500 I-0.268 J0.956 F360.000
G3 X18.202 Y20.702 Z-10.500 I-0.956 J-0.268 F360.000
G1 X18.202 Y20.702 Z-11.000 F6.000
G3 X16.544 Y19.732 Z-11.000 I-0.702 J-0.702 F360.000
G3 X17.768 Y19.044 Z-11.000 I0.956 J0.268 F360.000
G3 X18.456 Y20.268 Z-11.000 I-0.268 J0.956 F360.000
G3 X18.202 Y20.702 Z-11.000 I-0.956 J-0.268 F360.000
G1 X18.202 Y20.702 Z-11.500 F6.000
G3 X16.544 Y19.732 Z-11.500 I-0.702 J-0.702 F360.000
G3 X17.768 Y19.044 Z-11.500 I0.956 J0.268 F360.000
G3 X18.456 Y20.268 Z-11.500 I-0.268 J0.956 F360.000
G3 X18.202 Y20.702 Z-11.500 I-0.956 J-0.268 F360.000
G1 X18.202 Y20.702 Z-12.000 F6.000
G3 X16.544 Y19.732 Z-12.000 I-0.702 J-0.702 F360.000
G3 X17.768 Y19.044 Z-12.000 I0.956 J0.268 F360.000
G3 X18.456 Y20.268 Z-12.000 I-0.268 J0.956 F360.000
G3 X18.202 Y20.702 Z-12.000 I-0.956 J-0.268 F360.000
G1 X18.202 Y20.702 Z-12.500 F6.000
G3 X16.544 Y19.732 Z-12.500 I-0.702 J-0.702 F360.000
G3 X17.768 Y19.044 Z-12.500 I0.956 J0.268 F360.000
G3 X18.456 Y20.268 Z-12.500 I-0.268 J0.956 F360.000
G3 X18.202 Y20.702 Z-12.500 I-0.956 J-0.268 F360.000
G1 X18.202 Y20.702 Z-13.000 F6.000
G3 X16.544 Y19.732 Z-13.000 I-0.702 J-0.702 F360.000
G3 X17.768 Y19.044 Z-13.000 I0.956 J0.268 F360.000
G3 X18.456 Y20.268 Z-13.000 I-0.268 J0.956 F360.000
G3 X18.202 Y20.702 Z-13.000 I-0.956 J-0.268 F360.000
G1 X18.202 Y20.702 Z-13.500 F6.000
G3 X16.544 Y19.732 Z-13.500 I-0.702 J-0.702 F360.000
G3 X17.768 Y19.044 Z-13.500 I0.956 J0.268 F360.000
G3 X18.456 Y20.268 Z-13.500 I-0.268 J0.956 F360.000
G3 X18.202 Y20.702 Z-13.500 I-0.956 J-0.268 F360.000
G1 X18.202 Y20.702 Z-14.000 F6.000
G3 X16.544 Y19.732 Z-14.000 I-0.702 J-0.702 F360.000
G3 X17.768 Y19.044 Z-14.000 I0.956 J0.268 F360.000
G3 X18.456 Y20.268 Z-14.000 I-0.268 J0.956 F360.000
G3 X18.202 Y20.702 Z-14.000 I-0.956 J-0.268 F360.000
G1 X18.202 Y20.702 Z-14.500 F6.000
G3 X16.544 Y19.732 Z-14.500 I-0.702 J-0.702 F360.000
G3 X17.768 Y19.044 Z-14.500 I0.956 J0.268 F360.000
G3 X18.456 Y20.268 Z-14.500 I-0.268 J0.956 F360.000
G3 X18.202 Y20.702 Z-14.500 I-0.956 J-0.268 F360.000
G1 X18.202 Y20.702 Z-15.000 F6.000
G3 X16.544 Y19.732 Z-15.000 I-0.702 J-0.702 F360.000
G3 X17.768 Y19.044 Z-15.000 I0.956 J0.268 F360.000
G3 X18.456 Y20.268 Z-15.000 I-0.268 J0.956 F360.000
G3 X18.202 Y20.702 Z-15.000 I-0.956 J-0.268 F360.000
G0 Z5.000
(finish operation: Profile_Faces)
(begin postamble)
M05
G17 G54 G90 G80 G40
M2
